X:242
T: WER WOLLTE SICH MIT GRILLEN PLAGEN
N: B0290A
O: Europa, Mitteleuropa, Deutschland, Pommern; Brandenburg; Sachsen
R: Stimmungs - Lied, Freude
M: 4/4
L: 1/16
K: F
C4 | F6A2G2F2G2A2 | F4c3BA4z2
F2 | G6A2B2A2B2c2 | B4A4z4
F2A2 | c6A2c2A2c2f2 | e2d2c4z4
A4 | G6A2B2d2c2E2 | G4F4z4

@@@ Tune index: 2045
